svgs/sharp-light/user-helmet-safety.svg

<svg xmlns="http://www.w3.org/2000/svg" viewBox="0 0 448 512"><!--! Font Awesome Pro 6.6.0 by @fontawesome - https://fontawesome.com License - https://fontawesome.com/license (Commercial License) Copyright 2024 Fonticons, Inc. --><path d="M192 0L176 0l0 16 0 9.3c-46.9 19-80 65-80 118.7l-16 0-16 0 0 32 16 0 288 0 16 0 0-32-16 0-16 0c0-53.7-33.1-99.7-80-118.7l0-9.3 0-16L256 0 192 0zM128 144c0-35.5 19.3-66.6 48-83.2L176 80l0 16 32 0 0-16 0-48 32 0 0 48 0 16 32 0 0-16 0-19.2c28.7 16.6 48 47.6 48 83.2l-192 0zm96 176c65.3 0 119.1-48.9 127-112l-32.3 0c-7.6 45.4-47.1 80-94.7 80s-87.1-34.6-94.7-80L97 208c7.9 63.1 61.7 112 127 112zM71.8 384l304.4 0L405 480 43 480l28.8-96zm366.6 96L400 352l-176 0L48 352 9.6 480 0 512l33.4 0 381.2 0 33.4 0-9.6-32z"/></svg>

<svg xmlns="http://www.w3.org/2000/svg" viewBox="0 0 448 512"><!--! Font Awesome Pro 6.4.0 by @fontawesome - https://fontawesome.com License - https://fontawesome.com/license (Commercial License) Copyright 2023 Fonticons, Inc. --><path d="M192 0H176V16v9.3c-46.9 19-80 65-80 118.7l-16 0H64v32H80 368h16V144H368l-16 0c0-53.7-33.1-99.7-80-118.7V16 0H256 192zM128 144c0-35.5 19.3-66.6 48-83.2V80 96h32V80 32h32V80 96h32V80 60.8c28.7 16.6 48 47.6 48 83.2H128zm96 176c65.3 0 119.1-48.9 127-112H318.7c-7.6 45.4-47.1 80-94.7 80s-87.1-34.6-94.7-80H97c7.9 63.1 61.7 112 127 112zM71.8 384H376.2L405 480H43l28.8-96zm366.6 96L400 352H224 48L9.6 480 0 512H33.4 414.6 448l-9.6-32z"/></svg>
